X:1
T:[ID 2-6]
T:[ID 2-6]
T:Bezeichnung standardisiert: Menuett Menuet 21. \"Ahnlich in dieser Quelle: ID 7-67;
T:Urheber unbekannt Datum in der hier transkribierten schriftlichen Quelle: 1767
C:Urheber unbekannt
C:Datum in der hier transkribierten schriftlichen Quelle: 1767
L:1/8
M:3/4
K:D
V:1 treble 
V:1
 d4 (3fed | d'2 d'2 c'2 | A4 (3cBA | g2 g2 fe | d4 (3fed | d'2 d'2 b2 | c'b a2 ^g2 |{f} a6 :: %8
 AB A2 a2- | a2 gf g2 | AB A2 g2- | g2 fe f2 | D2 FDFA | d2 fdfa | d'2 f2 e2 | d6 :| %16

